X:16
T:Kamikaze Pigeon
R:Reel
C:Alan Kelly
D:The Alan Kelly Gang: Small Towns and Famous Nights (2011)
Z:Gwen 2018-06-03
M:2/2
Q:1/2=107
K:D
|: d2fd edfe | d2fd edBA | d2fd edBA | dBB/B/B gBfe |
   d3f edfe | dfed edBA | bfff afdB |1 ABdf edBc :|2 ABdf eAcd
|: e4 e3f | eBde faaf | e2de egag | fBB/B/B dAB/c/d |
   e3e- edfd | eBde faaf |1 b4 afba |
   fedB eABd :|2 bfff afba | fedB edBc ||

